X: 50
T:Webley Twizzle (Bampton) (alt)
M:6/8
L:1/8
O:England; Oxfordshire; Bampton.
B:Lionel Bacon, A Handbook of Morris Dances
Z:http://www.themorrisring.org/music/handbook-morris-dances
P:A(A2B2)4
N:6-bar B music, Alt B1&B2 & dotted rhyth
Q:100
K:G
P:A
D|G>FG A>GA|B>dB A>GA|B>AG E>AG|F>EF G2  ||
P:B
B|d>de d>BG|d>de d>BG|E>AG F>ED|E>AG F>ED|
                      B>AG E>AG|F>EF G2  ||

